dist/svgs/unicons/line/monitor.svg

<svg xmlns="http://www.w3.org/2000/svg" viewBox="0 0 24 24"><path d="M19 2H5a3 3 0 00-3 3v10a3 3 0 003 3h2.64l-.58 1a2 2 0 000 2 2 2 0 001.75 1h6.46A2 2 0 0017 21a2 2 0 000-2l-.59-1H19a3 3 0 003-3V5a3 3 0 00-3-3zM8.77 20L10 18h4l1.2 2zM20 15a1 1 0 01-1 1H5a1 1 0 01-1-1v-1h16zm0-3H4V5a1 1 0 011-1h14a1 1 0 011 1z"/></svg>

<svg xmlns="http://www.w3.org/2000/svg" viewBox="0 0 24 24"><path d="M19,2H5A3,3,0,0,0,2,5V15a3,3,0,0,0,3,3H7.64l-.58,1a2,2,0,0,0,0,2,2,2,0,0,0,1.75,1h6.46A2,2,0,0,0,17,21a2,2,0,0,0,0-2l-.59-1H19a3,3,0,0,0,3-3V5A3,3,0,0,0,19,2ZM8.77,20,10,18H14l1.2,2ZM20,15a1,1,0,0,1-1,1H5a1,1,0,0,1-1-1V14H20Zm0-3H4V5A1,1,0,0,1,5,4H19a1,1,0,0,1,1,1Z"/></svg>
